X:1
T:Cornelius, 77.77
T:Cornelius, 77.77
T:Anonymous
T:Public Domain Courtesy of the Cyber Hymnal™
C:Anonymous
Z:Public Domain
Z:Courtesy of the Cyber Hymnal™
%%score 1 ( 2 3 )
L:1/8
Q:1/4=110
M:4/4
K:D
V:1 treble 
V:2 bass 
V:3 bass 
V:1
 [DF]2 [DF]2 [CE]2 [DF]2 | [DG]3 [DG] [DF]4 | [FA]2 [FA]2 [Fd]2 [FB]2 | [E^G]3 [EG] [EA]4 | %4
 [^DA]2 [EA]2 [EA]2 [EG]2 | [CE]3 [CE] [DF]4 | [DF]2 [DF]2 [CE]2 [DF]2 | [DG]3 [DG] [DF]4 |] %8
V:2
 [D,A,]2 [D,A,]2 [A,,A,]2 [D,A,]2 | [G,,B,]3 [G,,B,] [D,A,]4 | D2 z [B,,D]2 [D,D]2 x | %3
 [E,B,]3 [E,B,] [A,C]4 | [F,=C]2 [E,C]2 [^D,C]2 [E,B,]2 | [A,,A,]3 [A,,A,] [D,A,]4 | %6
 [D,A,]2 [D,A,]2 [A,,A,]2 [D,A,]2 | [G,,B,]3 [G,,B,] [D,A,]4 |] %8
V:3
 x8 | x8 | D,3 (D2 C,) x2 | x8 | x8 | x8 | x8 | x8 |] %8

